X:1
T:Title
%%score ( 1 2 ) ( 3 4 )
L:1/8
Q:1/4=99
M:6/8
K:Bb
V:1 treble nm="Grand Piano, Soprano"
V:2 treble 
V:3 bass nm="Choir Pad, Bass"
V:4 bass 
V:1
 [DF]2 [B,D] [Fd]2 [Ec] | [DB][FA][EG] [DF]2 [B,D] | [DF]2 [FB] [EG]2 [Ec] | AG[EA] [DB]3 | %4
w: By~Daniel~Brink~Towner,~1899 * * *||||
 [DF]2 [B,D] [Fd]2 [Ec] | [DB][FA][EG] [DF]2 [B,D] | [DF]2 [FB] [EG]2 [Ec] | AG[EA] [DB]3 | %8
w: ||||
 [Ec]2 [DB] [CA]2 [EG] | [DF][EG][CE] [B,D] [DF]2 | [Ec]2 [DB] [CA][Fc][=EB] | [=EA]2 [EG] F2 _E | %12
w: ||||
 [DF]2 [B,D] [Fd]2 [Ec] | [DB][FA][EG] [DF]2 [B,D] | [DF]2 [FB] [EG]2 [Ec] | AG[EA] [DB]3- | %16
w: ||||
 [DB]6 |] %17
w: |
V:2
 x6 | x6 | x6 | .E3 z3 | x6 | x6 | x6 | .E3 z3 | x6 | x6 | x6 | x6 | x6 | x6 | x6 | .E3 z3 | x6 |] %17
V:3
 [B,,B,]2 [B,,F,] [B,,B,]2 [B,,B,] | [B,,B,]2 [B,,B,] [B,,B,]2 [B,,F,] | %2
 [B,,B,]2 [D,B,] [E,B,]2 [E,G,] | F,2 F, [B,,F,]3 | [B,,B,]2 [B,,F,] [B,,B,]2 [B,,B,] | %5
 [B,,B,]2 [B,,B,] [B,,B,]2 [B,,F,] | [B,,B,]2 [D,B,] [E,B,]2 [E,G,] | F,2 F, [B,,F,]3 | %8
 [F,A,]2 [F,B,] [F,C]2 [F,A,] | [B,,B,]2 [B,,B,] [B,,F,] [B,,B,]2 | [A,,F,]2 [B,,F,] F,A,[C,C] | %11
 [C,C]2 [C,B,] [F,A,]3 | [B,,B,]2 [B,,F,] [B,,B,]2 [B,,B,] | [B,,B,]2 [B,,B,] [B,,B,]2 [B,,F,] | %14
 [B,,B,]2 [D,B,] [E,B,]2 [E,G,] | F,2 F, [B,,F,]3- | [B,,F,]6 |] %17
V:4
 x6 | x6 | x6 | x6 | x6 | x6 | x6 | x6 | x6 | x6 | z3 .B,,3 | x6 | x6 | x6 | x6 | x6 | x6 |] %17

